X:98
T:Polko. Le4.098, The
M:2/4
L:1/8
Q:1/4=100
B:L.Leadley MS#4 c1850
Z:Village Music Project, 2016 Ruairidh Greig
K:F
B(3B/c/B/ Gd|cca>f|eeb>e|f/e/f/g/ af|
B(3B/c/B/ Gd|cca>f|ee[d'd]>e|fffz:|
|:e(3e/f/e/ gc|c=BB2|f(3f/g/f/ a=B|dcc2|
A(3A/B/A/ cA|ag2e|[gd]f2d|dc2"D.C."c|]

